X:1
T:The First Noel
C:Traditional (English)
M:3/4
L:1/4
Q:1/4=90
K:G
G | G A B | c d c | B A G | A2 B | c d e | d c B | c A G | A2 G | B c d | e f e | d c B | c2 B | d e f | g a g | f e d | e2 z |]
w: The first No-el the an-gel did say | Was to cer-tain poor shep-herds in fields as they lay | In fields where they lay keep-ing their sheep | On a cold win-ter's night that was so deep | No-el No-el No-el No-el | Born is the King of Is-ra-el |
